tela-icon-theme/src/symbolic/actions/align-horizontal-left-symbolic.svg

<svg width="16" height="16" version="1.1" viewBox="0 0 4.233 4.233" xmlns="http://www.w3.org/2000/svg">
 <path d="m0.52912 0v4.233h0.26488v-0.529h2.778c0.072902 0 0.132-0.059098 0.132-0.132v-1.058c5.553e-4 -0.073292-0.058706-0.133-0.132-0.133h-2.778v-0.264h1.984c0.073294 2.1e-6 0.13256-0.059708 0.132-0.133v-1.058c0-0.072902-0.059098-0.132-0.132-0.132h-1.984v-0.794h-0.26588zm0.26488 1.058h1.852v0.794h-1.852zm0 1.588h2.646v0.794h-2.646z" fill="#5d656b"/>
</svg>

<svg xmlns="http://www.w3.org/2000/svg" width="16" height="16" viewBox="0 0 4.233 4.233"><path d="M.265 0v4.233h.529v-.529h2.778a.132.132 0 0 0 .132-.132V2.514a.132.132 0 0 0-.132-.133H.794v-.264h1.984a.132.132 0 0 0 .132-.133V.926a.132.132 0 0 0-.132-.132H.794V0h-.53zm.529 1.058h1.852v.794H.794v-.794zm0 1.588H3.44v.794H.794v-.794z" style="marker:none" fill="#5d656b"/><path d="M.53 1.058v.794h2.116v-.794zm0 1.588v.794h2.91v-.794z" opacity=".1" fill="#5d656b" fill-opacity=".931"/></svg>
